X:1
T:Art O'Keeffe's
M:2/4
L:1/8
K:A
e2 c2|BE A>c|Be AB|cB Bc|\
e2 c2| BE A>c|BE AB|cA A2:|
ce a>a|gf f>e|ce fg|f/g/f/e/ cB|\
ce a>a|gf f>e|ce fg|ba a2 :|
